assets/images/icon-figma.svg

<svg fill="none" height="56" viewBox="0 0 56 56" width="56" xmlns="http://www.w3.org/2000/svg"><g fill="#fff"><path d="m36.4583 38.4931c-5.6257 0-10.2037-4.7087-10.2037-10.4953 0-5.7867 4.578-10.4954 10.2037-10.4954s10.2037 4.7087 10.2037 10.4954c0 5.7866-4.578 10.4953-10.2037 10.4953zm0-17.4907c-3.696 0-6.7037 3.1384-6.7037 6.9954s3.0077 6.9953 6.7037 6.9953 6.7037-3.1383 6.7037-6.9953-3.0077-6.9954-6.7037-6.9954z"/><path d="m19.5393 56c-5.628 0-10.20605-4.7087-10.20605-10.4977 0-3.6493 1.81765-6.8716 4.56865-8.7546-2.751-1.883-4.56865-5.1007-4.56865-8.7477 0-3.6447 1.82005-6.867 4.57565-8.7523-2.7556-1.8807-4.57565-5.103-4.57565-8.75 0-5.78903 4.57805-10.4977 10.20605-10.4977h16.9236c5.6257 0 10.2037 4.71333 10.2037 10.507 0 5.7867-4.578 10.4977-10.206 10.4977l-6.7177-.0047v24.5023c0 5.789-4.578 10.4977-10.2036 10.4977zm0-17.5023c-3.696 0-6.706 3.143-6.706 7.007 0 3.857 3.0076 6.9976 6.706 6.9976 3.6983 0 6.706-3.1383 6.706-6.9976v-26.2547c0-.966.784-1.75 1.75-1.75h8.4653c1.7803 0 3.4557-.721 4.7203-2.0277 1.281-1.323 1.9857-3.0846 1.9857-4.9653 0-3.864-3.0077-7.007-6.706-7.007h-16.9213c-3.6984 0-6.706 3.13833-6.706 6.9977 0 3.8593 3.0076 6.9976 6.706 6.9976.966 0 1.75.7817 1.75 1.7477s-.7794 1.75-1.7477 1.7523c-3.6983.0047-6.7083 3.15-6.7083 7.0047 0 3.857 3.0076 6.9977 6.706 6.9977.966 0 1.75.784 1.75 1.75s-.784 1.75-1.75 1.75z"/><path d="m0 0h13.125v3.5h-13.125z" transform="matrix(1 0 0 -1 19.25 21)"/><path d="m0 0h11.375v3.5h-11.375z" transform="matrix(1 0 0 -1 17.5 38.5)"/><path d="m0 0h14.875v3.5h-14.875z" transform="matrix(-.00000004 1 1 .00000004 26.25 2.625)"/></g></svg>

<svg width="56" height="56" viewBox="0 0 56 56" fill="none" xmlns="http://www.w3.org/2000/svg">
<path d="M36.4583 38.4931C30.8326 38.4931 26.2546 33.7844 26.2546 27.9978C26.2546 22.2111 30.8326 17.5024 36.4583 17.5024C42.084 17.5024 46.662 22.2111 46.662 27.9978C46.662 33.7844 42.084 38.4931 36.4583 38.4931ZM36.4583 21.0024C32.7623 21.0024 29.7546 24.1408 29.7546 27.9978C29.7546 31.8548 32.7623 34.9931 36.4583 34.9931C40.1543 34.9931 43.162 31.8548 43.162 27.9978C43.162 24.1408 40.1543 21.0024 36.4583 21.0024Z" fill="white"/>
<path d="M19.5393 56C13.9113 56 9.33325 51.2913 9.33325 45.5023C9.33325 41.853 11.1509 38.6307 13.9019 36.7477C11.1509 34.8647 9.33325 31.647 9.33325 28C9.33325 24.3553 11.1533 21.133 13.9089 19.2477C11.1533 17.367 9.33325 14.1447 9.33325 10.4977C9.33325 4.70867 13.9113 0 19.5393 0H36.4629C42.0886 0 46.6666 4.71333 46.6666 10.507C46.6666 16.2937 42.0886 21.0047 36.4606 21.0047L29.7429 21V45.5023C29.7429 51.2913 25.1649 56 19.5393 56ZM19.5393 38.4977C15.8433 38.4977 12.8333 41.6407 12.8333 45.5047C12.8333 49.3617 15.8409 52.5023 19.5393 52.5023C23.2376 52.5023 26.2453 49.364 26.2453 45.5047V19.25C26.2453 18.284 27.0293 17.5 27.9953 17.5H36.4606C38.2409 17.5 39.9163 16.779 41.1809 15.4723C42.4619 14.1493 43.1666 12.3877 43.1666 10.507C43.1666 6.643 40.1589 3.5 36.4606 3.5H19.5393C15.8409 3.5 12.8333 6.63833 12.8333 10.4977C12.8333 14.357 15.8409 17.4953 19.5393 17.4953C20.5053 17.4953 21.2893 18.277 21.2893 19.243C21.2893 20.209 20.5099 20.993 19.5416 20.9953C15.8433 21 12.8333 24.1453 12.8333 28C12.8333 31.857 15.8409 34.9977 19.5393 34.9977C20.5053 34.9977 21.2893 35.7817 21.2893 36.7477C21.2893 37.7137 20.5053 38.4977 19.5393 38.4977Z" fill="white"/>
<rect width="13.125" height="3.5" transform="matrix(1 0 0 -1 19.25 21)" fill="white"/>
<rect width="11.375" height="3.5" transform="matrix(1 0 0 -1 17.5 38.5)" fill="white"/>
<rect width="14.875" height="3.5" transform="matrix(-4.37114e-08 1 1 4.37114e-08 26.25 2.625)" fill="white"/>
</svg>
